svgs/sharp-regular/hard-drive.svg

<svg xmlns="http://www.w3.org/2000/svg" viewBox="0 0 512 512"><!--! Font Awesome Pro 6.6.0 by @fontawesome - https://fontawesome.com License - https://fontawesome.com/license (Commercial License) Copyright 2024 Fonticons, Inc. --><path d="M48 80l0 176 416 0 0-176L48 80zm0 224l0 128 416 0 0-128L48 304zM0 256L0 80 0 32l48 0 416 0 48 0 0 48 0 176 0 48 0 128 0 48-48 0L48 480 0 480l0-48L0 304l0-48zM280 368a24 24 0 1 1 48 0 24 24 0 1 1 -48 0zm120-24a24 24 0 1 1 0 48 24 24 0 1 1 0-48z"/></svg>

<svg xmlns="http://www.w3.org/2000/svg" viewBox="0 0 512 512"><!--! Font Awesome Pro 6.4.2 by @fontawesome - https://fontawesome.com License - https://fontawesome.com/license (Commercial License) Copyright 2023 Fonticons, Inc. --><path d="M48 80V256H464V80H48zm0 224V432H464V304H48zM0 256V80 32H48 464h48V80 256v48V432v48H464 48 0V432 304 256zM280 368a24 24 0 1 1 48 0 24 24 0 1 1 -48 0zm120-24a24 24 0 1 1 0 48 24 24 0 1 1 0-48z"/></svg>
